frontend/app/img/container.svg

<?xml version="1.0" standalone="no"?>
<!DOCTYPE svg PUBLIC "-//W3C//DTD SVG 1.1//EN" "http://www.w3.org/Graphics/SVG/1.1/DTD/svg11.dtd">
<svg width="100%" height="100%" viewBox="0 0 50 20" version="1.1" xmlns="http://www.w3.org/2000/svg" xmlns:xlink="http://www.w3.org/1999/xlink" xml:space="preserve" style="fill-rule:evenodd;clip-rule:evenodd;stroke-linejoin:round;stroke-miterlimit:1.41421;">
    <path d="M49.0194,0.0002L49.0194,1.9042L50.0004,1.9042L50.0004,0.0002L49.0194,0.0002ZM44.0004,1.0002L47.0004,1.0002L47.0004,0.0002L44.0004,0.0002L44.0004,1.0002ZM38.9994,1.0002L42.0004,1.0002L42.0004,0.0002L38.9994,0.0002L38.9994,1.0002ZM34.0004,1.0002L37.0004,1.0002L37.0004,0.0002L34.0004,0.0002L34.0004,1.0002ZM28.9994,1.0002L32.0004,1.0002L32.0004,0.0002L28.9994,0.0002L28.9994,1.0002ZM25.0004,1.0002L27.0004,1.0002L27.0004,0.0002L25.0004,0.0002L25.0004,1.0002ZM19.9994,1.0002L23.0004,1.0002L23.0004,0.0002L19.9994,0.0002L19.9994,1.0002ZM15.0004,1.0002L18.0004,1.0002L18.0004,0.0002L15.0004,0.0002L15.0004,1.0002ZM9.9994,1.0002L12.9994,1.0002L12.9994,0.0002L9.9994,0.0002L9.9994,1.0002ZM5.0004,1.0002L8.0004,1.0002L8.0004,0.0002L5.0004,0.0002L5.0004,1.0002ZM0.0004,0.0002L0.0004,2.0002L0.9994,2.0002L0.9994,1.0002L2.9994,1.0002L2.9994,0.0002L0.0004,0.0002ZM48.9994,7.0002L50.0004,7.0002L50.0004,3.9992L48.9994,3.9992L48.9994,7.0002ZM0.0004,7.0002L1.0004,7.0002L1.0004,3.9992L0.0004,3.9992L0.0004,7.0002ZM48.9994,11.0002L50.0004,11.0002L50.0004,9.0002L48.9994,9.0002L48.9994,11.0002ZM0.0004,11.0002L1.0004,11.0002L1.0004,9.0002L0.0004,9.0002L0.0004,11.0002ZM48.9994,16.0002L50.0004,16.0002L50.0004,12.9992L48.9994,12.9992L48.9994,16.0002ZM0.0004,16.0002L1.0004,16.0002L1.0004,12.9992L0.0004,12.9992L0.0004,16.0002ZM0.0004,18.0002L0.0004,20.0002L2.9994,20.0002L2.9994,19.0002L0.9994,19.0002L0.9994,18.0002L0.0004,18.0002ZM49.0194,18.0952L49.0194,20.0002L50.0004,20.0002L50.0004,18.0952L49.0194,18.0952ZM44.0004,20.0002L47.0004,20.0002L47.0004,19.0002L44.0004,19.0002L44.0004,20.0002ZM38.9994,20.0002L42.0004,20.0002L42.0004,19.0002L38.9994,19.0002L38.9994,20.0002ZM34.0004,20.0002L37.0004,20.0002L37.0004,19.0002L34.0004,19.0002L34.0004,20.0002ZM28.9994,20.0002L32.0004,20.0002L32.0004,19.0002L28.9994,19.0002L28.9994,20.0002ZM25.0004,20.0002L27.0004,20.0002L27.0004,19.0002L25.0004,19.0002L25.0004,20.0002ZM19.9994,20.0002L23.0004,20.0002L23.0004,19.0002L19.9994,19.0002L19.9994,20.0002ZM15.0004,20.0002L18.0004,20.0002L18.0004,19.0002L15.0004,19.0002L15.0004,20.0002ZM9.9994,20.0002L12.9994,20.0002L12.9994,19.0002L9.9994,19.0002L9.9994,20.0002ZM5.0004,20.0002L8.0004,20.0002L8.0004,19.0002L5.0004,19.0002L5.0004,20.0002Z" style="fill:rgb(66,66,81);fill-rule:nonzero;"/>
</svg>

<svg viewBox="0 0 50 20" xmlns="http://www.w3.org/2000/svg" fill-rule="evenodd" clip-rule="evenodd" stroke-linejoin="round" stroke-miterlimit="1.414"><path d="M49.02 0v1.904H50V0h-.98zM44 1h3V0h-3v1zm-5 0h3V0h-3v1zm-5 0h3V0h-3v1zm-5 0h3V0h-3v1zm-4 0h2V0h-2v1zm-5 0h3V0h-3v1zm-5 0h3V0h-3v1zm-5 0h3V0h-3v1zM5 1h3V0H5v1zM0 0v2h1V1h2V0H0zm49 7h1V4h-1v3zM0 7h1V4H0v3zm49 4h1V9h-1v2zM0 11h1V9H0v2zm49 5h1v-3h-1v3zM0 16h1v-3H0v3zm0 2v2h3v-1H1v-1H0zm49.02.095V20H50v-1.905h-.98zM44 20h3v-1h-3v1zm-5 0h3v-1h-3v1zm-5 0h3v-1h-3v1zm-5 0h3v-1h-3v1zm-4 0h2v-1h-2v1zm-5 0h3v-1h-3v1zm-5 0h3v-1h-3v1zm-5 0h3v-1h-3v1zm-5 0h3v-1H5v1z" fill="#424251" fill-rule="nonzero"/></svg>
